frontend/src/assets/icons/message-chat-square.svg

<svg width="24" height="24" viewBox="0 0 24 24" fill="none" xmlns="http://www.w3.org/2000/svg">
<g id="message-chat-square">
<path id="Icon" d="M10 15L6.92474 18.1137C6.49579 18.548 6.28131 18.7652 6.09695 18.7805C5.93701 18.7938 5.78042 18.7295 5.67596 18.6076C5.55556 18.4672 5.55556 18.162 5.55556 17.5515V15.9916C5.55556 15.444 5.10707 15.0477 4.5652 14.9683V14.9683C3.25374 14.7762 2.22378 13.7463 2.03168 12.4348C2 12.2186 2 11.9605 2 11.4444V6.8C2 5.11984 2 4.27976 2.32698 3.63803C2.6146 3.07354 3.07354 2.6146 3.63803 2.32698C4.27976 2 5.11984 2 6.8 2H14.2C15.8802 2 16.7202 2 17.362 2.32698C17.9265 2.6146 18.3854 3.07354 18.673 3.63803C19 4.27976 19 5.11984 19 6.8V11M19 22L16.8236 20.4869C16.5177 20.2742 16.3647 20.1678 16.1982 20.0924C16.0504 20.0255 15.8951 19.9768 15.7356 19.9474C15.5558 19.9143 15.3695 19.9143 14.9969 19.9143H13.2C12.0799 19.9143 11.5198 19.9143 11.092 19.6963C10.7157 19.5046 10.4097 19.1986 10.218 18.8223C10 18.3944 10 17.8344 10 16.7143V14.2C10 13.0799 10 12.5198 10.218 12.092C10.4097 11.7157 10.7157 11.4097 11.092 11.218C11.5198 11 12.0799 11 13.2 11H18.8C19.9201 11 20.4802 11 20.908 11.218C21.2843 11.4097 21.5903 11.7157 21.782 12.092C22 12.5198 22 13.0799 22 14.2V16.9143C22 17.8462 22 18.3121 21.8478 18.6797C21.6448 19.1697 21.2554 19.5591 20.7654 19.762C20.3978 19.9143 19.9319 19.9143 19 19.9143V22Z" stroke="black" stroke-width="2" stroke-linecap="round" stroke-linejoin="round"/>
</g>
</svg>

<svg xmlns="http://www.w3.org/2000/svg" width="24" height="24" fill="none" viewBox="0 0 24 24">
  <path stroke="#000" stroke-linecap="round" stroke-linejoin="round" stroke-width="2" d="m10 15-3.075 3.114c-.43.434-.644.651-.828.666a.5.5 0 0 1-.421-.172c-.12-.14-.12-.446-.12-1.056v-1.56c0-.548-.449-.944-.99-1.024v0a3 3 0 0 1-2.534-2.533C2 12.219 2 11.96 2 11.445V6.8c0-1.68 0-2.52.327-3.162a3 3 0 0 1 1.311-1.311C4.28 2 5.12 2 6.8 2h7.4c1.68 0 2.52 0 3.162.327a3 3 0 0 1 1.311 1.311C19 4.28 19 5.12 19 6.8V11m0 11-2.176-1.513c-.306-.213-.46-.32-.626-.395a2.002 2.002 0 0 0-.462-.145c-.18-.033-.367-.033-.74-.033H13.2c-1.12 0-1.68 0-2.108-.218a2 2 0 0 1-.874-.874C10 18.394 10 17.834 10 16.714V14.2c0-1.12 0-1.68.218-2.108a2 2 0 0 1 .874-.874C11.52 11 12.08 11 13.2 11h5.6c1.12 0 1.68 0 2.108.218a2 2 0 0 1 .874.874C22 12.52 22 13.08 22 14.2v2.714c0 .932 0 1.398-.152 1.766a2 2 0 0 1-1.083 1.082c-.367.152-.833.152-1.765.152V22Z"/>
</svg>
